dist/images/icons/stacks/docker-whale.svg

<svg version="1.1" id="Calque_1" xmlns="http://www.w3.org/2000/svg" xmlns:xlink="http://www.w3.org/1999/xlink" x="0" y="0" viewBox="0 0 250 250" xml:space="preserve"><style>.st0{fill:#394d54}.st2{fill:#00acd3}.st3{fill:#20c2ef}.st4{stroke:#394d54;stroke-width:1.56}</style><path id="path14" class="st0" d="M143.9 99.8h21.6v22.1h10.9c5 0 10.2-.9 15-2.5 2.3-.8 5-1.9 7.3-3.3-3.1-4-4.6-9-5.1-14-.6-6.7.7-15.5 5.3-20.8l2.3-2.6 2.7 2.2c6.8 5.5 12.6 13.1 13.6 21.9 8.2-2.4 17.8-1.8 25.1 2.3l3 1.7-1.6 3c-6.1 11.9-18.9 15.6-31.4 15-18.7 46.6-59.5 68.7-108.9 68.7-25.5 0-48.9-9.5-62.3-32.2-.8-1.4-1.5-2.9-2.2-4.3-4.5-10-6-20.9-5-31.8l.3-3.3H53V99.8h21.6V78.2h43.2V56.5h25.9l.2 43.3"/><defs><path id="SVGID_1_" d="M76.3 58.4v43.5H55.5v21.7H38.1c-.1.6-.1 1.3-.2 1.9-1.1 11.8 1 22.8 5.7 32.1l1.6 2.9c1 1.7 2.1 3.3 3.2 4.9 1.2 1.6 1.6 2.4 2.3 3.5 12.6 14.1 31.3 20.9 52.9 20.9 47.9 0 88.5-21.2 106.5-68.9 12.8 1.3 25-2 30.6-12.9-8.9-5.1-20.3-3.5-26.9-.2l17.4-49.5-68.1 43.5h-21.7V58.4H76.3z"/></defs><clipPath id="SVGID_2_"><use xlink:href="#SVGID_1_" overflow="visible"/></clipPath><g id="g16" clip-path="url(#SVGID_2_)"><g id="g18"><g id="g20" transform="translate(0 -22.866)"><path id="path22" class="st2" d="M121.5 61.4h18.7v18.7h-18.7V61.4z"/><path id="path24" class="st3" d="M121.5 83h18.7v18.7h-18.7V83z"/><path id="path26" class="st4" d="M123.8 78.6V63m2.8 15.6V63m2.9 15.6V63m2.8 15.6V63m2.9 15.6V63m2.8 15.6V63"/><path class="st4" d="M123.8 100.2V84.6m2.8 15.6V84.6m2.9 15.6V84.6m2.8 15.6V84.6m2.9 15.6V84.6m2.8 15.6V84.6" transform="translate(0 22.866)" id="use28"/></g><g id="use30"><path class="st2" d="M143.1 101.7h18.7V83h-18.7v18.7z" transform="matrix(1 0 0 -1 22.866 27.439)"/><path class="st3" d="M143.1 80.1h18.7V61.4h-18.7v18.7z" transform="matrix(1 0 0 -1 22.866 27.439)"/><path class="st4" d="M145.4 84.6v15.6m2.9-15.6v15.6m2.8-15.6v15.6m2.8-15.6v15.6m2.9-15.6v15.6m2.8-15.6v15.6" transform="matrix(1 0 0 -1 22.866 27.439)"/><path class="st4" d="M145.4 63v15.6m2.9-15.6v15.6m2.8-15.6v15.6m2.8-15.6v15.6m2.9-15.6v15.6m2.8-15.6v15.6" transform="matrix(1 0 0 -1 22.866 4.573)"/></g></g><g id="use32"><path class="st2" d="M35.1 104.6h18.7v18.7H35.1v-18.7z" transform="translate(-91.464 22.866)"/><path class="st3" d="M35.1 126.2h18.7V145H35.1v-18.8z" transform="translate(-91.464 22.866)"/><path class="st4" d="M37.4 121.8v-15.6m2.8 15.6v-15.6m2.8 15.6v-15.6m2.9 15.6v-15.6m2.8 15.6v-15.6m2.8 15.6v-15.6" transform="translate(-91.464 22.866)"/><path class="st4" d="M37.4 143.4v-15.6m2.8 15.6v-15.6m2.8 15.6v-15.6m2.9 15.6v-15.6m2.8 15.6v-15.6m2.8 15.6v-15.6" transform="translate(-91.464 45.732)"/><path class="st2" d="M56.7 145h18.7v-18.7H56.7V145z" transform="matrix(1 0 0 -1 -68.598 73.17)"/><path class="st3" d="M56.7 123.4h18.7v-18.7H56.7v18.7z" transform="matrix(1 0 0 -1 -68.598 73.17)"/><path class="st4" d="M59 127.8v15.6m2.8-15.6v15.6m2.8-15.6v15.6m2.9-15.6v15.6m2.8-15.6v15.6m2.8-15.6v15.6" transform="matrix(1 0 0 -1 -68.598 73.17)"/><path class="st4" d="M59 106.2v15.6m2.8-15.6v15.6m2.8-15.6v15.6m2.9-15.6v15.6m2.8-15.6v15.6m2.8-15.6v15.6" transform="matrix(1 0 0 -1 -68.598 50.305)"/></g><g id="use34"><path class="st2" d="M78.3 104.6H97v18.7H78.3v-18.7z" transform="translate(-45.732 22.866)"/><path class="st3" d="M78.3 126.2H97V145H78.3v-18.8z" transform="translate(-45.732 22.866)"/><path class="st4" d="M80.6 121.8v-15.6m2.8 15.6v-15.6m2.8 15.6v-15.6m2.9 15.6v-15.6m2.8 15.6v-15.6m2.8 15.6v-15.6" transform="translate(-45.732 22.866)"/><path class="st4" d="M80.6 143.4v-15.6m2.8 15.6v-15.6m2.8 15.6v-15.6m2.9 15.6v-15.6m2.8 15.6v-15.6m2.8 15.6v-15.6" transform="translate(-45.732 45.732)"/><path class="st2" d="M99.9 145h18.7v-18.7H99.9V145z" transform="matrix(1 0 0 -1 -22.866 73.17)"/><path class="st3" d="M99.9 123.4h18.7v-18.7H99.9v18.7z" transform="matrix(1 0 0 -1 -22.866 73.17)"/><path class="st4" d="M102.2 127.8v15.6m2.8-15.6v15.6m2.9-15.6v15.6m2.8-15.6v15.6m2.8-15.6v15.6m2.8-15.6v15.6" transform="matrix(1 0 0 -1 -22.866 73.17)"/><path class="st4" d="M102.2 106.2v15.6m2.8-15.6v15.6m2.9-15.6v15.6m2.8-15.6v15.6m2.8-15.6v15.6m2.8-15.6v15.6" transform="matrix(1 0 0 -1 -22.866 50.305)"/></g><g id="use36"><path class="st2" d="M121.5 104.6h18.7v18.7h-18.7v-18.7z" transform="translate(0 22.866)"/><path class="st3" d="M121.5 126.2h18.7V145h-18.7v-18.8z" transform="translate(0 22.866)"/><path class="st4" d="M123.8 121.8v-15.6m2.8 15.6v-15.6m2.9 15.6v-15.6m2.8 15.6v-15.6m2.9 15.6v-15.6m2.8 15.6v-15.6" transform="translate(0 22.866)"/><path class="st4" d="M123.8 143.4v-15.6m2.8 15.6v-15.6m2.9 15.6v-15.6m2.8 15.6v-15.6m2.9 15.6v-15.6m2.8 15.6v-15.6" transform="translate(0 45.732)"/><path class="st2" d="M143.1 145h18.7v-18.7h-18.7V145z" transform="matrix(1 0 0 -1 22.866 73.17)"/><path class="st3" d="M143.1 123.4h18.7v-18.7h-18.7v18.7z" transform="matrix(1 0 0 -1 22.866 73.17)"/><path class="st4" d="M145.4 127.8v15.6m2.9-15.6v15.6m2.8-15.6v15.6m2.8-15.6v15.6m2.9-15.6v15.6m2.8-15.6v15.6" transform="matrix(1 0 0 -1 22.866 73.17)"/><path class="st4" d="M145.4 106.2v15.6m2.9-15.6v15.6m2.8-15.6v15.6m2.8-15.6v15.6m2.9-15.6v15.6m2.8-15.6v15.6" transform="matrix(1 0 0 -1 22.866 50.305)"/></g></g><defs><path id="SVGID_3_" d="M76.3 58.4v43.5H55.5v21.7H38.1c-.1.6-.1 1.3-.2 1.9-1.1 11.8 1 22.8 5.7 32.1l1.6 2.9c1 1.7 2.1 3.3 3.2 4.9 1.2 1.6 1.6 2.4 2.3 3.5 12.6 14.1 31.3 20.9 52.9 20.9 47.9 0 88.5-21.2 106.5-68.9 12.8 1.3 25-2 30.6-12.9-8.9-5.1-20.3-3.5-26.9-.2l17.4-49.5-68.1 43.5h-21.7V58.4H76.3z"/></defs><clipPath id="SVGID_4_"><use xlink:href="#SVGID_3_" overflow="visible"/></clipPath><path id="path38" d="M213.9 108c1.4-11.3-7-20.1-12.2-24.3-6 7-7 25.2 2.5 32.9-5.3 4.7-16.4 8.9-27.8 8.9H36.6c-1.1 11.9 0 69.1 0 69.1h205.1l-.9-86.4c-8.9-5.2-20.3-3.6-26.9-.2" clip-path="url(#SVGID_4_)" fill="#17b5eb"/><defs><path id="SVGID_5_" d="M76.3 58.4v43.5H55.5v21.7H38.1c-.1.6-.1 1.3-.2 1.9-1.1 11.8 1 22.8 5.7 32.1l1.6 2.9c1 1.7 2.1 3.3 3.2 4.9 1.2 1.6 1.6 2.4 2.3 3.5 12.6 14.1 31.3 20.9 52.9 20.9 47.9 0 88.5-21.2 106.5-68.9 12.8 1.3 25-2 30.6-12.9-8.9-5.1-20.3-3.5-26.9-.2l17.4-49.5-68.1 43.5h-21.7V58.4H76.3z"/></defs><clipPath id="SVGID_6_"><use xlink:href="#SVGID_5_" overflow="visible"/></clipPath><path id="path40" d="M36.6 140.7v53.9h205.1v-53.9" clip-path="url(#SVGID_6_)" fill-opacity=".17"/><defs><path id="SVGID_7_" d="M76.3 58.4v43.5H55.5v21.7H38.1c-.1.6-.1 1.3-.2 1.9-1.1 11.8 1 22.8 5.7 32.1l1.6 2.9c1 1.7 2.1 3.3 3.2 4.9 1.2 1.6 1.6 2.4 2.3 3.5 12.6 14.1 31.3 20.9 52.9 20.9 47.9 0 88.5-21.2 106.5-68.9 12.8 1.3 25-2 30.6-12.9-8.9-5.1-20.3-3.5-26.9-.2l17.4-49.5-68.1 43.5h-21.7V58.4H76.3z"/></defs><clipPath id="SVGID_8_"><use xlink:href="#SVGID_7_" overflow="visible"/></clipPath><path id="path42" d="M109.6 189.7c-12.8-6.1-19.8-14.3-23.7-23.3L47 168.1l19.9 26.5 42.7-4.9" clip-path="url(#SVGID_8_)" fill="#d4edf1"/><defs><path id="SVGID_9_" d="M76.3 58.4v43.5H55.5v21.7H38.1c-.1.6-.1 1.3-.2 1.9-1.1 11.8 1 22.8 5.7 32.1l1.6 2.9c1 1.7 2.1 3.3 3.2 4.9 1.2 1.6 1.6 2.4 2.3 3.5 12.6 14.1 31.3 20.9 52.9 20.9 47.9 0 88.5-21.2 106.5-68.9 12.8 1.3 25-2 30.6-12.9-8.9-5.1-20.3-3.5-26.9-.2l17.4-49.5-68.1 43.5h-21.7V58.4H76.3z"/></defs><clipPath id="SVGID_10_"><use xlink:href="#SVGID_9_" overflow="visible"/></clipPath><path id="path44" d="M214.8 107.5c-19.7 25.4-48 47.7-78.4 59.3-27.1 10.4-50.7 10.5-67 2.1-1.8-1-3.5-2.1-5.2-3.1-11.9-8.3-18.7-22.2-18.1-40.4h-9.5v69.1h205.1v-90.8h-23.6l-3.3 3.8z" clip-path="url(#SVGID_10_)" fill-opacity=".085"/><path id="path46" d="M47.6 167.2c13.4.7 27.7.9 40.1-3" fill="none" stroke="#394d54" stroke-width="3.4" stroke-linecap="round"/><path id="path48" d="M101 157.7c0 2.9-2.3 5.2-5.2 5.2-2.9 0-5.2-2.3-5.2-5.2 0-2.9 2.3-5.2 5.2-5.2 2.9 0 5.2 2.3 5.2 5.2z" fill="#d4edf1"/><path id="path50" class="st0" d="M97.2 154.2c-.5.3-.8.7-.8 1.3 0 .8.7 1.5 1.5 1.5.6 0 1.1-.3 1.3-.8.2.4.3.9.3 1.4 0 2-1.7 3.7-3.7 3.7s-3.7-1.7-3.7-3.7 1.7-3.7 3.7-3.7c.5.1 1 .1 1.4.3z"/><path id="path52" class="st0" d="M4.4 141.8h240.4c-5.2-1.3-16.6-3.1-14.7-10-9.5 11-32.5 7.7-38.3 2.3-6.5 9.4-44 5.8-46.6-1.5-8.1 9.5-33.2 9.5-41.2 0-2.6 7.3-40.2 10.8-46.6 1.5-5.8 5.4-28.7 8.7-38.3-2.3 1.9 6.9-9.4 8.7-14.7 10"/></svg>

<?xml version="1.0" encoding="utf-8"?>
<!-- Generator: Adobe Illustrator 23.0.1, SVG Export Plug-In . SVG Version: 6.00 Build 0)  -->
<svg version="1.1" id="Calque_1" xmlns="http://www.w3.org/2000/svg" xmlns:xlink="http://www.w3.org/1999/xlink" x="0px" y="0px"
	 viewBox="0 0 250 250" style="enable-background:new 0 0 250 250;" xml:space="preserve">
<style type="text/css">
	.st0{fill:#394D54;}
	.st1{clip-path:url(#SVGID_2_);}
	.st2{fill:#00ACD3;}
	.st3{fill:#20C2EF;}
	.st4{stroke:#394D54;stroke-width:1.56;}
	.st5{clip-path:url(#SVGID_4_);fill:#17B5EB;}
	.st6{clip-path:url(#SVGID_6_);fill-opacity:0.17;}
	.st7{clip-path:url(#SVGID_8_);fill:#D4EDF1;}
	.st8{clip-path:url(#SVGID_10_);fill-opacity:8.500000e-02;}
	.st9{fill:none;stroke:#394D54;stroke-width:3.4;stroke-linecap:round;}
	.st10{fill:#D4EDF1;}
</style>
<g>
	<path id="path14" class="st0" d="M143.9,99.8h21.6v22.1h10.9c5,0,10.2-0.9,15-2.5c2.3-0.8,5-1.9,7.3-3.3c-3.1-4-4.6-9-5.1-14
		c-0.6-6.7,0.7-15.5,5.3-20.8l2.3-2.6l2.7,2.2c6.8,5.5,12.6,13.1,13.6,21.9c8.2-2.4,17.8-1.8,25.1,2.3l3,1.7l-1.6,3
		c-6.1,11.9-18.9,15.6-31.4,15c-18.7,46.6-59.5,68.7-108.9,68.7c-25.5,0-48.9-9.5-62.3-32.2c-0.8-1.4-1.5-2.9-2.2-4.3
		c-4.5-10-6-20.9-5-31.8l0.3-3.3h18.5V99.8h21.6V78.2h43.2V56.5h25.9L143.9,99.8"/>
	<g>
		<defs>
			<path id="SVGID_1_" d="M76.3,58.4v43.5H55.5v21.7H38.1c-0.1,0.6-0.1,1.3-0.2,1.9c-1.1,11.8,1,22.8,5.7,32.1l1.6,2.9
				c1,1.7,2.1,3.3,3.2,4.9c1.2,1.6,1.6,2.4,2.3,3.5c12.6,14.1,31.3,20.9,52.9,20.9c47.9,0,88.5-21.2,106.5-68.9
				c12.8,1.3,25-2,30.6-12.9c-8.9-5.1-20.3-3.5-26.9-0.2l17.4-49.5l-68.1,43.5h-21.7V58.4H76.3z"/>
		</defs>
		<clipPath id="SVGID_2_">
			<use xlink:href="#SVGID_1_"  style="overflow:visible;"/>
		</clipPath>
		<g id="g16" class="st1">
			<g id="g18">
				<g id="g20" transform="translate(0,-22.866)">
					<path id="path22" class="st2" d="M121.5,61.4h18.7v18.7h-18.7L121.5,61.4z"/>
					<path id="path24" class="st3" d="M121.5,83h18.7v18.7h-18.7L121.5,83z"/>
					<path id="path26" class="st4" d="M123.8,78.6V63 M126.6,78.6V63 M129.5,78.6V63 M132.3,78.6V63 M135.2,78.6V63 M138,78.6V63"/>
					<g id="use28" transform="translate(0,22.866)">
						<path class="st4" d="M123.8,100.2V84.6 M126.6,100.2V84.6 M129.5,100.2V84.6 M132.3,100.2V84.6 M135.2,100.2V84.6 M138,100.2
							V84.6"/>
					</g>
				</g>
				<g id="use30" transform="matrix(1,0,0,-1,22.866,4.572651)">
					<g transform="translate(0,-22.866)">
						<path class="st2" d="M143.1,101.7h18.7V83h-18.7L143.1,101.7z"/>
						<path class="st3" d="M143.1,80.1h18.7V61.4h-18.7L143.1,80.1z"/>
						<path class="st4" d="M145.4,84.6v15.6 M148.3,84.6v15.6 M151.1,84.6v15.6 M153.9,84.6v15.6 M156.8,84.6v15.6 M159.6,84.6v15.6
							"/>
						<g transform="translate(0,22.866)">
							<path class="st4" d="M145.4,63v15.6 M148.3,63v15.6 M151.1,63v15.6 M153.9,63v15.6 M156.8,63v15.6 M159.6,63v15.6"/>
						</g>
					</g>
				</g>
			</g>
			<g id="use32" transform="translate(-91.464,45.732)">
				<g>
					<g transform="translate(0,-22.866)">
						<path class="st2" d="M35.1,104.6h18.7v18.7H35.1L35.1,104.6z"/>
						<path class="st3" d="M35.1,126.2h18.7V145H35.1L35.1,126.2z"/>
						<path class="st4" d="M37.4,121.8v-15.6 M40.2,121.8v-15.6 M43,121.8v-15.6 M45.9,121.8v-15.6 M48.7,121.8v-15.6 M51.5,121.8
							v-15.6"/>
						<g transform="translate(0,22.866)">
							<path class="st4" d="M37.4,143.4v-15.6 M40.2,143.4v-15.6 M43,143.4v-15.6 M45.9,143.4v-15.6 M48.7,143.4v-15.6 M51.5,143.4
								v-15.6"/>
						</g>
					</g>
					<g transform="matrix(1,0,0,-1,22.866,4.572651)">
						<g transform="translate(0,-22.866)">
							<path class="st2" d="M56.7,145h18.7v-18.7H56.7L56.7,145z"/>
							<path class="st3" d="M56.7,123.4h18.7v-18.7H56.7L56.7,123.4z"/>
							<path class="st4" d="M59,127.8v15.6 M61.8,127.8v15.6 M64.6,127.8v15.6 M67.5,127.8v15.6 M70.3,127.8v15.6 M73.1,127.8v15.6"
								/>
							<g transform="translate(0,22.866)">
								<path class="st4" d="M59,106.2v15.6 M61.8,106.2v15.6 M64.6,106.2v15.6 M67.5,106.2v15.6 M70.3,106.2v15.6 M73.1,106.2v15.6
									"/>
							</g>
						</g>
					</g>
				</g>
			</g>
			<g id="use34" transform="translate(-45.732,45.732)">
				<g>
					<g transform="translate(0,-22.866)">
						<path class="st2" d="M78.3,104.6H97v18.7H78.3L78.3,104.6z"/>
						<path class="st3" d="M78.3,126.2H97V145H78.3L78.3,126.2z"/>
						<path class="st4" d="M80.6,121.8v-15.6 M83.4,121.8v-15.6 M86.2,121.8v-15.6 M89.1,121.8v-15.6 M91.9,121.8v-15.6 M94.7,121.8
							v-15.6"/>
						<g transform="translate(0,22.866)">
							<path class="st4" d="M80.6,143.4v-15.6 M83.4,143.4v-15.6 M86.2,143.4v-15.6 M89.1,143.4v-15.6 M91.9,143.4v-15.6
								 M94.7,143.4v-15.6"/>
						</g>
					</g>
					<g transform="matrix(1,0,0,-1,22.866,4.572651)">
						<g transform="translate(0,-22.866)">
							<path class="st2" d="M99.9,145h18.7v-18.7H99.9L99.9,145z"/>
							<path class="st3" d="M99.9,123.4h18.7v-18.7H99.9L99.9,123.4z"/>
							<path class="st4" d="M102.2,127.8v15.6 M105,127.8v15.6 M107.9,127.8v15.6 M110.7,127.8v15.6 M113.5,127.8v15.6 M116.3,127.8
								v15.6"/>
							<g transform="translate(0,22.866)">
								<path class="st4" d="M102.2,106.2v15.6 M105,106.2v15.6 M107.9,106.2v15.6 M110.7,106.2v15.6 M113.5,106.2v15.6
									 M116.3,106.2v15.6"/>
							</g>
						</g>
					</g>
				</g>
			</g>
			<g id="use36" transform="translate(0,45.732)">
				<g>
					<g transform="translate(0,-22.866)">
						<path class="st2" d="M121.5,104.6h18.7v18.7h-18.7L121.5,104.6z"/>
						<path class="st3" d="M121.5,126.2h18.7V145h-18.7L121.5,126.2z"/>
						<path class="st4" d="M123.8,121.8v-15.6 M126.6,121.8v-15.6 M129.5,121.8v-15.6 M132.3,121.8v-15.6 M135.2,121.8v-15.6
							 M138,121.8v-15.6"/>
						<g transform="translate(0,22.866)">
							<path class="st4" d="M123.8,143.4v-15.6 M126.6,143.4v-15.6 M129.5,143.4v-15.6 M132.3,143.4v-15.6 M135.2,143.4v-15.6
								 M138,143.4v-15.6"/>
						</g>
					</g>
					<g transform="matrix(1,0,0,-1,22.866,4.572651)">
						<g transform="translate(0,-22.866)">
							<path class="st2" d="M143.1,145h18.7v-18.7h-18.7L143.1,145z"/>
							<path class="st3" d="M143.1,123.4h18.7v-18.7h-18.7L143.1,123.4z"/>
							<path class="st4" d="M145.4,127.8v15.6 M148.3,127.8v15.6 M151.1,127.8v15.6 M153.9,127.8v15.6 M156.8,127.8v15.6
								 M159.6,127.8v15.6"/>
							<g transform="translate(0,22.866)">
								<path class="st4" d="M145.4,106.2v15.6 M148.3,106.2v15.6 M151.1,106.2v15.6 M153.9,106.2v15.6 M156.8,106.2v15.6
									 M159.6,106.2v15.6"/>
							</g>
						</g>
					</g>
				</g>
			</g>
		</g>
	</g>
	<g>
		<defs>
			<path id="SVGID_3_" d="M76.3,58.4v43.5H55.5v21.7H38.1c-0.1,0.6-0.1,1.3-0.2,1.9c-1.1,11.8,1,22.8,5.7,32.1l1.6,2.9
				c1,1.7,2.1,3.3,3.2,4.9c1.2,1.6,1.6,2.4,2.3,3.5c12.6,14.1,31.3,20.9,52.9,20.9c47.9,0,88.5-21.2,106.5-68.9
				c12.8,1.3,25-2,30.6-12.9c-8.9-5.1-20.3-3.5-26.9-0.2l17.4-49.5l-68.1,43.5h-21.7V58.4H76.3z"/>
		</defs>
		<clipPath id="SVGID_4_">
			<use xlink:href="#SVGID_3_"  style="overflow:visible;"/>
		</clipPath>
		<path id="path38" class="st5" d="M213.9,108c1.4-11.3-7-20.1-12.2-24.3c-6,7-7,25.2,2.5,32.9c-5.3,4.7-16.4,8.9-27.8,8.9H36.6
			c-1.1,11.9,0,69.1,0,69.1h205.1l-0.9-86.4C231.9,103,220.5,104.6,213.9,108"/>
	</g>
	<g>
		<defs>
			<path id="SVGID_5_" d="M76.3,58.4v43.5H55.5v21.7H38.1c-0.1,0.6-0.1,1.3-0.2,1.9c-1.1,11.8,1,22.8,5.7,32.1l1.6,2.9
				c1,1.7,2.1,3.3,3.2,4.9c1.2,1.6,1.6,2.4,2.3,3.5c12.6,14.1,31.3,20.9,52.9,20.9c47.9,0,88.5-21.2,106.5-68.9
				c12.8,1.3,25-2,30.6-12.9c-8.9-5.1-20.3-3.5-26.9-0.2l17.4-49.5l-68.1,43.5h-21.7V58.4H76.3z"/>
		</defs>
		<clipPath id="SVGID_6_">
			<use xlink:href="#SVGID_5_"  style="overflow:visible;"/>
		</clipPath>
		<path id="path40" class="st6" d="M36.6,140.7v53.9h205.1v-53.9"/>
	</g>
	<g>
		<defs>
			<path id="SVGID_7_" d="M76.3,58.4v43.5H55.5v21.7H38.1c-0.1,0.6-0.1,1.3-0.2,1.9c-1.1,11.8,1,22.8,5.7,32.1l1.6,2.9
				c1,1.7,2.1,3.3,3.2,4.9c1.2,1.6,1.6,2.4,2.3,3.5c12.6,14.1,31.3,20.9,52.9,20.9c47.9,0,88.5-21.2,106.5-68.9
				c12.8,1.3,25-2,30.6-12.9c-8.9-5.1-20.3-3.5-26.9-0.2l17.4-49.5l-68.1,43.5h-21.7V58.4H76.3z"/>
		</defs>
		<clipPath id="SVGID_8_">
			<use xlink:href="#SVGID_7_"  style="overflow:visible;"/>
		</clipPath>
		<path id="path42" class="st7" d="M109.6,189.7c-12.8-6.1-19.8-14.3-23.7-23.3L47,168.1l19.9,26.5L109.6,189.7"/>
	</g>
	<g>
		<defs>
			<path id="SVGID_9_" d="M76.3,58.4v43.5H55.5v21.7H38.1c-0.1,0.6-0.1,1.3-0.2,1.9c-1.1,11.8,1,22.8,5.7,32.1l1.6,2.9
				c1,1.7,2.1,3.3,3.2,4.9c1.2,1.6,1.6,2.4,2.3,3.5c12.6,14.1,31.3,20.9,52.9,20.9c47.9,0,88.5-21.2,106.5-68.9
				c12.8,1.3,25-2,30.6-12.9c-8.9-5.1-20.3-3.5-26.9-0.2l17.4-49.5l-68.1,43.5h-21.7V58.4H76.3z"/>
		</defs>
		<clipPath id="SVGID_10_">
			<use xlink:href="#SVGID_9_"  style="overflow:visible;"/>
		</clipPath>
		<path id="path44" class="st8" d="M214.8,107.5L214.8,107.5c-19.7,25.4-48,47.7-78.4,59.3c-27.1,10.4-50.7,10.5-67,2.1
			c-1.8-1-3.5-2.1-5.2-3.1c-11.9-8.3-18.7-22.2-18.1-40.4h-9.5v69.1h205.1v-90.8h-23.6L214.8,107.5z"/>
	</g>
	<path id="path46" class="st9" d="M47.6,167.2c13.4,0.7,27.7,0.9,40.1-3"/>
	<path id="path48" class="st10" d="M101,157.7c0,2.9-2.3,5.2-5.2,5.2c-2.9,0-5.2-2.3-5.2-5.2c0-2.9,2.3-5.2,5.2-5.2
		C98.7,152.5,101,154.8,101,157.7z"/>
	<path id="path50" class="st0" d="M97.2,154.2c-0.5,0.3-0.8,0.7-0.8,1.3c0,0.8,0.7,1.5,1.5,1.5c0.6,0,1.1-0.3,1.3-0.8
		c0.2,0.4,0.3,0.9,0.3,1.4c0,2-1.7,3.7-3.7,3.7c-2,0-3.7-1.7-3.7-3.7c0-2,1.7-3.7,3.7-3.7C96.3,154,96.8,154,97.2,154.2z"/>
	<path id="path52" class="st0" d="M4.4,141.8h240.4c-5.2-1.3-16.6-3.1-14.7-10c-9.5,11-32.5,7.7-38.3,2.3c-6.5,9.4-44,5.8-46.6-1.5
		c-8.1,9.5-33.2,9.5-41.2,0c-2.6,7.3-40.2,10.8-46.6,1.5c-5.8,5.4-28.7,8.7-38.3-2.3C21,138.7,9.7,140.5,4.4,141.8"/>
</g>
</svg>
